bench.svg

<svg fill="currentColor" viewBox="0 0 24 24"><path d="M23 13H1v2h2v4h2v-4h14v4h2v-4h2z"/></svg>

<svg  viewBox="0 0 24 24" fill="currentColor"><path  d="M23 13H1V15H3V19H5V15H19V19H21V15H23V13Z"/></svg>
